icons/svg/shopping/leather.svg

<?xml version="1.0" encoding="UTF-8" standalone="no"?>
<!-- Created with Inkscape (http://www.inkscape.org/) -->

<svg
   xmlns:dc="http://purl.org/dc/elements/1.1/"
   xmlns:cc="http://creativecommons.org/ns#"
   xmlns:rdf="http://www.w3.org/1999/02/22-rdf-syntax-ns#"
   xmlns:svg="http://www.w3.org/2000/svg"
   xmlns="http://www.w3.org/2000/svg"
   xmlns:sodipodi="http://sodipodi.sourceforge.net/DTD/sodipodi-0.dtd"
   xmlns:inkscape="http://www.inkscape.org/namespaces/inkscape"
   version="1.0"
   width="580"
   height="580"
   id="svg2"
   sodipodi:version="0.32"
   inkscape:version="0.48.4 r9939"
   sodipodi:docname="leather.svg"
   inkscape:output_extension="org.inkscape.output.svg.inkscape">
  <metadata
     id="metadata10">
    <rdf:RDF>
      <cc:Work
         rdf:about="">
        <dc:format>image/svg+xml</dc:format>
        <dc:type
           rdf:resource="http://purl.org/dc/dcmitype/StillImage" />
        <cc:license
           rdf:resource="http://web.resource.org/cc/PublicDomain" />
        <dc:language>en</dc:language>
        <dc:title />
      </cc:Work>
    </rdf:RDF>
  </metadata>
  <sodipodi:namedview
     inkscape:window-height="1004"
     inkscape:window-width="1920"
     inkscape:pageshadow="2"
     inkscape:pageopacity="0.0"
     guidetolerance="10.0"
     gridtolerance="10.0"
     objecttolerance="10.0"
     borderopacity="1.0"
     bordercolor="#666666"
     pagecolor="#ffffff"
     id="base"
     showgrid="false"
     inkscape:zoom="0.70710678"
     inkscape:cx="463.06174"
     inkscape:cy="281.89189"
     inkscape:window-x="1680"
     inkscape:window-y="0"
     inkscape:current-layer="svg2"
     inkscape:window-maximized="1" />
  <defs
     id="defs4">
    <clipPath
       id="clipoutline2"
       clipPathUnits="userSpaceOnUse">
      <path
         d="M 55.8,12 L 56.56,12.16 C 65.4,9.22 85.24,20.8 80.82,31.12 C 79.7,32.74 79.89,35.62 81.24,37.43 L 56.43,62.25 C 55.04,60.86 51.95,60.89 50.53,62.25 L 9.5,101.63 C 5.76,105.22 8.7,108.27 10.28,109.88 L 17.64,117.24 C 19.25,118.84 23.5,121 26.52,117.8 L 65.24,76.99 C 66.59,75.57 66.6,72.52 65.24,71.12 C 65.24,71.12 65.25,71.1 65.24,71.1 L 90.15,46.2 C 92.78,48.57 95.263827,48.774854 97.62,48.13 C 102.17057,46.884568 104.70725,51.336643 107.43,54.59 L 106.2,55.8 C 104.38,57.64 104.55,60.74 106.59,62.78 C 108.63,64.82 111.74,64.99 113.56,63.17 L 121.7,55.04 C 123.52,53.2 123.35,50.1 121.3,48.07 C 119.46,46.22 116.79,45.98 114.93,47.3 C 109.35,41.04 112.28,40.1 104.92,31.95 L 91.13,17.86 C 81.2,8.12 68.3,8.13 55.8,12 z"
         id="outline2" />
    </clipPath>
    <clipPath
       id="clipoutline1"
       clipPathUnits="userSpaceOnUse">
      <path
         d="M 22.42,17.2 L 35.38,30.15 L 32.88,38.93 L 24.1,41.43 L 11.14,28.47 L 5.28,34.33 L 20.17,55.79 L 37.73,52.45 L 99.36,118.07 C 108.8,127.58 121.53,113.32 112.7,105.2 L 46.85,42.92 L 50.86,25.16 L 28.72,10.89 L 22.42,17.2 z M 103.48,109.17 C 105.16,107.49 107.88,107.49 109.56,109.17 C 111.24,110.85 111.24,113.57 109.56,115.25 C 107.88,116.92 105.16,116.92 103.48,115.25 C 101.8,113.57 101.8,110.85 103.48,109.17 z"
         id="outline1" />
    </clipPath>
    <inkscape:perspective
       sodipodi:type="inkscape:persp3d"
       inkscape:vp_x="0 : 290 : 1"
       inkscape:vp_y="0 : 1000 : 0"
       inkscape:vp_z="580 : 290 : 1"
       inkscape:persp3d-origin="290 : 193.33333 : 1"
       id="perspective12" />
    <style
       type="text/css"
       id="style6">
   
    .fil0 {fill:#EF7900}
   
  </style>
    <inkscape:perspective
       id="perspective6807"
       inkscape:persp3d-origin="29.116032 : 19.410688 : 1"
       inkscape:vp_z="58.232063 : 29.116032 : 1"
       inkscape:vp_y="0 : 1000 : 0"
       inkscape:vp_x="0 : 29.116032 : 1"
       sodipodi:type="inkscape:persp3d" />
    <inkscape:perspective
       id="perspective6954"
       inkscape:persp3d-origin="290 : 193.33333 : 1"
       inkscape:vp_z="580 : 290 : 1"
       inkscape:vp_y="0 : 1000 : 0"
       inkscape:vp_x="0 : 290 : 1"
       sodipodi:type="inkscape:persp3d" />
    <marker
       viewBox="0 0 10 10"
       refY="5"
       refX="10"
       orient="auto"
       markerWidth="4"
       markerUnits="strokeWidth"
       markerHeight="3"
       id="ArrowStart">
      <path
         id="path2295"
         d="M 10 0 L 0 5 L 10 10 z" />
    </marker>
    <marker
       viewBox="0 0 10 10"
       refY="5"
       refX="0"
       orient="auto"
       markerWidth="4"
       markerUnits="strokeWidth"
       markerHeight="3"
       id="ArrowEnd">
      <path
         id="path2292"
         d="M 0 0 L 10 5 L 0 10 z" />
    </marker>
    <inkscape:perspective
       id="perspective7597"
       inkscape:persp3d-origin="178.5405 : 158.483 : 1"
       inkscape:vp_z="357.08099 : 237.7245 : 1"
       inkscape:vp_y="0 : 1000 : 0"
       inkscape:vp_x="0 : 237.7245 : 1"
       sodipodi:type="inkscape:persp3d" />
  </defs>
  <g
     id="g1327"
     transform="translate(0.5,-0.5)">
    <path
       d="M 66.275,1.768 C 24.94,1.768 1.704,23.139 1.704,66.804 l 0,450.123 c 0,40.844 20.894,62.229 62.192,62.229 l 452.024,0 c 41.307,0 62.229,-20.316 62.229,-62.229 l 0,-450.123 c 0,-42.601 -20.922,-65.036 -63.522,-65.036 -0.003,0 -448.494,-0.143 -448.352,0 z"
       style="fill:#111111;stroke:#eeeeee;stroke-width:3.40799999"
       id="path1329"
       inkscape:connector-curvature="0" />
  </g>
  <g
     id="g2319"
     transform="translate(879.29125,36.805119)">
    <path
       id="path2323"
       style="fill:#ffffff;stroke:none"
       d="" />
  </g>
  <g
     id="g2325"
     transform="translate(879.29125,36.805119)">
    <path
       id="path2329"
       style="fill:#ffffff;stroke:none"
       d="" />
  </g>
  <path
     d="m 267.94286,84.326718 c -2.51265,0 -4.89562,1.105124 -6.52806,3.019566 -14.18728,16.717166 -25.3372,54.220176 -109.36571,52.281596 -1.75197,0.18804 -3.33894,0.93588 -4.63004,2.04181 l -0.43133,-0.48888 -25.24931,36.55111 c -1.60677,3.30754 -0.90689,7.29993 1.72547,9.86391 19.08493,18.62307 64.10248,59.8399 64.10248,112.87421 0,51.21579 -43.32282,91.76468 -61.39926,110.19973 -2.83748,2.88875 -3.25427,7.35928 -1.00647,10.72664 l 23.3513,35.05571 c 0.24783,0.3675 0.57203,0.66154 0.86264,0.97776 0.12828,0.1453 0.23715,0.30317 0.3739,0.43137 0.70085,0.67518 1.47469,1.19708 2.32942,1.58168 0.18801,0.0941 0.38715,0.14147 0.57515,0.2013 0.9486,0.35896 1.94496,0.59537 2.96201,0.60392 71.59495,0 97.35965,7.88503 129.63997,45.17844 2.35032,1.82897 4.38729,3.39928 6.09665,4.62999 1.50415,1.07688 3.25179,1.61044 5.00386,1.61044 1.75206,0 3.48802,-0.54211 4.97504,-1.61044 1.71792,-1.23071 3.74633,-2.79248 6.09665,-4.62999 29.15064,-36.1159 62.62687,-46.34976 115.37613,-44.71834 l 15.9606,-1.84049 -0.17254,-0.17256 c 6.01639,-1.1911 9.87987,-9.60635 13.19976,-13.63118 l 15.78806,-23.63888 c 2.24779,-3.36735 1.82245,-7.83788 -1.00649,-10.72663 -18.07615,-18.43505 -56.39935,-59.0127 -56.39935,-110.22849 0,-53.0343 39.98921,-94.25114 59.07379,-112.87421 2.34175,-2.28194 3.19961,-5.72621 2.15687,-8.82863 l -10.81291,-32.32373 c -1.1112,-3.33317 -4.14545,-5.65834 -7.64967,-5.83782 -102.6586,1.86217 -109.13306,-38.50791 -121.64522,-53.259358 -1.63243,-1.914442 -4.01542,-3.019566 -6.52806,-3.019566 l -56.82533,0 z"
     id="path3-0"
     style="fill:#ffffff;fill-opacity:1"
     inkscape:connector-curvature="0"
     sodipodi:nodetypes="cccccccsccccccccccsccccccccscccccscc" />
</svg>

<svg width="580" height="580" viewBox="0 0 580 580" fill="none" xmlns="http://www.w3.org/2000/svg">
<g clip-path="url(#clip0)">
<path d="M66.7751 1.26863C25.4401 1.26863 2.2041 22.6396 2.2041 66.3046V516.428C2.2041 557.272 23.0981 578.657 64.3961 578.657H516.42C557.727 578.657 578.649 558.341 578.649 516.428V66.3046C578.649 23.7036 557.727 1.26863 515.127 1.26863C515.124 1.26863 66.6331 1.12563 66.7751 1.26863V1.26863Z" fill="#111111" stroke="#EEEEEE" stroke-width="3.408"/>
<path d="M267.943 84.3262C265.43 84.3262 263.047 85.4313 261.415 87.3457C247.228 104.063 236.078 141.566 152.049 139.627C150.297 139.815 148.71 140.563 147.419 141.669L146.988 141.18L121.739 177.731C120.132 181.039 120.832 185.031 123.464 187.595C142.549 206.218 187.566 247.435 187.566 300.469C187.566 351.685 144.244 392.234 126.167 410.669C123.33 413.558 122.913 418.029 125.161 421.396L148.512 456.452C148.76 456.819 149.084 457.113 149.375 457.429C149.503 457.575 149.612 457.733 149.749 457.861C150.449 458.536 151.223 459.058 152.078 459.442C152.266 459.536 152.465 459.584 152.653 459.644C153.602 460.003 154.598 460.239 155.615 460.248C227.21 460.248 252.975 468.133 285.255 505.426C287.605 507.255 289.642 508.825 291.352 510.056C292.856 511.133 294.604 511.667 296.356 511.667C298.108 511.667 299.844 511.124 301.331 510.056C303.049 508.825 305.077 507.264 307.427 505.426C336.578 469.31 370.054 459.076 422.803 460.708L438.764 458.867L438.592 458.695C444.608 457.504 448.471 449.088 451.791 445.063L467.579 421.425C469.827 418.057 469.402 413.587 466.573 410.698C448.497 392.263 410.174 351.685 410.174 300.469C410.174 247.435 450.163 206.218 469.247 187.595C471.589 185.313 472.447 181.869 471.404 178.767L460.591 146.443C459.48 143.11 456.446 140.785 452.942 140.605C350.283 142.467 343.809 102.097 331.296 87.3457C329.664 85.4313 327.281 84.3262 324.768 84.3262H267.943V84.3262Z" fill="white"/>
</g>
<defs>
<clipPath id="clip0">
<path d="M0 0H580V580H0V0Z" fill="white"/>
</clipPath>
</defs>
</svg>
